X:1
T:Title
%%score ( 1 2 ) 3
L:1/8
Q:1/4=110
M:4/4
K:Ab
V:1 treble nm="Grand Piano, Soprano"
V:2 treble 
V:3 bass nm="Choir Pad, Pilgrim, Watch and Pray"
V:1
 [Ec][DB] [CA]2 [CA]2 [CE]2 | z4 .F2 z2 | [EB]3 [EB] [EB]2 [CA]2 | [Ec]2 [EB]2 [EB]4 | %4
w: By~Theodore~Edson~Perkins * * * *||||
 [Ec][DB] [CA]2 [CA]2 [CE]2 | z4 .F2 z2 | [DB]3 [CA] [Ec]2 [DB]2 | [CA]6 z2 | [Ae]4 [Ae]4 | %9
w: |||||
 [Ec][DB] [CA]6 | [Ec]4 [Ec]4 | BA [DF]6 | [CE]2 [CA]2 [EA]2 [EB]2 | [Ec]2 [Ee]2 [EB]2 [Ec]2 | %14
w: |||||
 [CA]2 [DF]2 E2 [Ec]2 | [DB]4 [CA]4- | [CA]4 z4 |] %17
w: |||
V:2
 x8 | [DF]2 [CE]2 D-[DG] [CA]2 | x8 | x8 | x8 | [DF]2 [CE]2 D-[DG] [CA]2 | x8 | x8 | x8 | x8 | x8 | %11
 F2 z2 z4 | x8 | x8 | x8 | x8 | x8 |] %17
V:3
 [A,,A,]2 [A,,A,]2 [A,,A,]2 [A,,A,]2 | [A,,A,]2 [A,,A,]2 [A,,A,]2 [A,,A,]2 | %2
 [E,G,]3 [E,G,] [E,G,]2 [E,A,]2 | [E,A,]2 [E,G,]2 [E,G,]4 | [A,,A,]2 [A,,A,]2 [A,,A,]2 [A,,A,]2 | %5
 [A,,A,]2 [A,,A,]2 [A,,A,]2 [A,,A,]2 | [E,G,]3 [E,A,] [E,A,]2 [E,G,]2 | [A,,A,]6 z2 | %8
 [A,C]4 [A,C]4 | [A,,A,]2 [A,,A,]6 | [A,,A,]4 [A,,A,]4 | [D,A,]2 [D,A,]6 | %12
 [A,,A,]2 [A,,A,]2 [C,A,]2 [E,G,]2 | A,2 [C,A,]2 [E,G,]2 [C,A,]2 | %14
 [F,A,]2 [D,A,]2 [C,A,]2 [A,,A,]2 | [E,G,]4 [A,,A,]4- | [A,,A,]4 z4 |] %17

